X:1
T:Lucky Ducky
N:To be played after ``Measured Steps''
C:copyright 1997 Kaubells
R:Reel
E:12
M:C
K:G
\bigskip
"G"G2 d2 .b3a|g/a/ged BABG|"C6"=CDEC AGEC|"D13"DEFD BAEF|
"G"G2 d2 .b3a|g/a/ged BABG|"C"CDEC "D7"AGEF|1"...G"G4 D4:|2"...G"G6 z2|]
K:D
|:"D"A/B/AFA d/e/dBd|AFAd fbag|"A7"az az ABcA|"A"az az BceB|
"D"A/B/AFA d/e/dBd|AFAd fbag|"A"az az ABcA|"D"dBAF D4:|
